X: 5
T:Buffalo Girls
M:2/4
L:1/8
R:Polka
N:http://www.lesession.co.uk
Z:Steve Mansfield 1998-2001
K:D
DD FA | BA F2 | AG EG | BA F2 |
DD FA | BA FG | AA GE | D4 ::
dd dA | BA F2 | AG EG | BA F2 |
dd dA | BA FG | AA GE | D4 ||
<end>
<start>
